svgs/light/compress.svg

<svg xmlns="http://www.w3.org/2000/svg" viewBox="0 0 448 512"><!-- Font Awesome Pro 6.0.0-alpha2 by @fontawesome - https://fontawesome.com License - https://fontawesome.com/license (Commercial License) --><path d="M144 320H16C7.156 320 0 327.156 0 336S7.156 352 16 352H128V464C128 472.844 135.156 480 144 480S160 472.844 160 464V336C160 327.156 152.844 320 144 320ZM304 192H432C440.844 192 448 184.844 448 176S440.844 160 432 160H320V48C320 39.156 312.844 32 304 32S288 39.156 288 48V176C288 184.844 295.156 192 304 192ZM432 320H304C295.156 320 288 327.156 288 336V464C288 472.844 295.156 480 304 480S320 472.844 320 464V352H432C440.844 352 448 344.844 448 336S440.844 320 432 320ZM144 32C135.156 32 128 39.156 128 48V160H16C7.156 160 0 167.156 0 176S7.156 192 16 192H144C152.844 192 160 184.844 160 176V48C160 39.156 152.844 32 144 32Z"/></svg>

<svg xmlns="http://www.w3.org/2000/svg" viewBox="0 0 448 512"><!--! Font Awesome Pro 6.3.0 by @fontawesome - https://fontawesome.com License - https://fontawesome.com/license (Commercial License) Copyright 2023 Fonticons, Inc. --><path d="M144 320h-128C7.156 320 0 327.2 0 336S7.156 352 16 352H128v112C128 472.8 135.2 480 144 480S160 472.8 160 464v-128C160 327.2 152.8 320 144 320zM304 192h128C440.8 192 448 184.8 448 176S440.8 160 432 160H320V48C320 39.16 312.8 32 304 32S288 39.16 288 48v128C288 184.8 295.2 192 304 192zM432 320h-128c-8.844 0-16 7.156-16 16v128c0 8.844 7.156 16 16 16s16-7.156 16-16V352h112c8.844 0 16-7.156 16-16S440.8 320 432 320zM144 32C135.2 32 128 39.16 128 48V160H16C7.156 160 0 167.2 0 176S7.156 192 16 192h128C152.8 192 160 184.8 160 176v-128C160 39.16 152.8 32 144 32z"/></svg>
